X:9192
T:Lafferty's
T:The Woman I Never Forgot
C:Sean Ryan
R:Reel
D:Four Men and a Dog: Shifting Gravel.
D:Planxty.
D:Kevin Burke & Micheal O'Donnell.
A:Ireland
Z:id:hn-reel-41
M:C|
K:EDor
B2AF BFAF|EDEF EDB,D|B2AF BFAF|DFBA FE~E2|
B2AF BFAF|EDEF EDB,A,|B,E~E2 DEFA|dBAF FE~E2:|
|:eB~B2 egfe|d2fd Adfd|eB~B2 egfe|dBAF FE~E2|
eB~B2 egfe|d2fd Adfd|~B3d efge|dBAF FE~E2:|
